!!!COM: Sergey (Sergeyevich) Prokofiev
!!!OTL: [T578_Pro-w24p42h30m1-9]
**kern	**dynam	**kern	**dynam	**kern	**dynam	**kern	**dynam
*grp:A	*grp:A	*grp:A	*grp:A	*grp:B	*grp:B	*grp:B	*grp:B
*part4	*part4	*part3	*part3	*part2	*part2	*part1	*part1
*staff4	*staff4	*staff3	*staff3	*staff2	*staff2	*staff1	*staff1
*I"Violoncello	*I"Violoncello	*I"Viola	*I"Viola	*I"Violin II	*I"Violin II	*I"Violin I	*I"Violin I
*I'Vc.	*	*I'Vla.	*	*I'Vln. II	*	*I'Vln. I	*
*clefF4	*	*clefC3	*	*clefG2	*	*clefG2	*
*k[f#c#g#]	*	*k[f#c#g#]	*	*k[f#c#g#]	*	*k[f#c#g#]	*
*A:	*	*A:	*	*A:	*	*A:	*
*M9/8	*	*M9/8	*	*M9/8	*	*M9/8	*
=1	=1	=1	=1	=1	=1	=1	=1
!	!	!	!	!	!	!LO:TX:t=[[quarter-dot]=40]	!LO:DY:t=%s dolce
(4Av	pp	4.r	.	8aL]	pp	(4cc#v	pp
.	.	.	.	(8e	.	.	.
8C#)	.	.	.	8aJ)	.	[8ff#	.
2.FF#	.	4.r	.	(8eL	.	8ff#L]	.
.	.	.	.	8c#)	.	8ffn)	.
.	.	.	.	8e~J	.	([8eeJ	.
.	.	8cc#~vL	pp	4.A	.	8ee]	.
.	.	(8a	.	.	.	4aa)	.
.	.	8cc#J)	.	.	.	.	.
=2	=2	=2	=2	=2	=2	=2	=2
8E~vL	.	(8aL	.	8%9r	.	(8gg#L	.
(8A	.	8e	.	.	.	8cc#	.
8EJ)	.	8aJ	.	.	.	[8ff#J	.
(8C#L	.	8eL)	.	.	.	8ff#])	.
!	!	!	!	!	!	!LO:TX:a:t=II	!
8E)	.	(8c#	.	.	.	(4aa	.
8C#~J	.	8eJ)	.	.	.	.	.
(8GG#L	.	(8c#L	.	.	.	4bb	.
8C#	.	8G#	.	.	.	.	.
8GG#J)	.	8c#J)	.	.	.	8ee)	.
=3	=3	=3	=3	=3	=3	=3	=3
[2.CC#	.	[2.E	.	8aao~vL	pp	(8ccc#L	.
!	!	!	!	!	!	!LO:N:	!
.	.	.	.	(8ee	.	8eeeo)	.
.	.	.	.	8gg#J)	.	[8bbJ	.
.	.	.	.	(8eeL	.	8bbL]	.
.	.	.	.	8cc#)	.	8ccc#~	.
.	.	.	.	8g#~J	.	([8bbJ	.
4.CC#]	.	4.E]	.	(8cc#L	.	8bb]	.
.	.	.	.	8g#	.	4ee)	.
.	.	.	.	8eJ)	.	.	.
=4	=4	=4	=4	=4	=4	=4	=4
(4DD	.	2.c#	.	(4.a	.	(8ee#X	.
.	.	.	.	.	.	4ccc#)	.
8FF#)	.	.	.	.	.	.	.
(8AAL	.	.	.	4.a#X)	.	(8ff#L	.
8F#	.	.	.	.	.	8ddd	.
8A#XJ)	.	.	.	.	.	8ccc#J)	.
(4d	.	[4.d	.	[4.b	.	4.bb~	.
8c#)	.	.	.	.	.	.	.
=5	=5	=5	=5	=5	=5	=5	=5
(8BL	p	8dL]	.	8bL]	.	8%9r	.
!	!	!	!	! 	!LO:DY:t=%s espress.	!	!
8E)	.	(8A#X	p	(8cc#	p	.	.
[8GGnJ	.	8BJ)	.	[8ddJ	.	.	.
8GGL]	.	(4c#	.	8dd])	.	.	.
(8E	.	.	.	4ff#~	.	.	.
[8BJ	.	8d)	.	.	.	.	.
8BL])	.	(8eL	.	(4dd	.	.	.
(8E-X	.	8f#	.	.	.	.	.
8DJ)	.	8gnJ)	.	8b)	.	.	.
=6	=6	=6	=6	=6	=6	=6	=6
(8AAL	.	(8g#X	.	(8ff#	<	(8B#XvL	mp <
8C#)	.	4a)	.	4cc#)	.	8c#	.
[8FF#J	<	.	.	.	.	8d#XJ)	.
4.FF#]	.	(8F#L	<	(8aa	.	(8e#XL	.
.	.	8A)	.	4dd)	.	8f#)	.
.	.	([8DJ	[	.	.	8a#X~J	.
(8GGnL	[ >	(8DL]	>	[4.bb	mf [	(8cc#L	[ >
8BB	.	8Gn	.	.	.	8.ddn	.
8BBnJ)	]	8dJ))	]	.	.	.	.
.	.	.	.	.	.	16eenJk)	]
=7	=7	=7	=7	=7	=7	=7	=7
(8BBB#X	p	(4b	p	8bbL]	.	4dd~	p
4CC#)	.	.	.	(8aa	p	.	.
.	.	8g#X)	.	[8ff#J	.	8b~	.
(4C#	.	(4a	.	8ff#L])	.	(4cc#	.
.	.	.	.	(8gg#	.	.	.
8GG#)	.	8f#)	.	[8eeJ	.	8a)	.
(4EE	.	(8g#	.	8eeL]	.	(8b	.
.	.	4gn)	.	8dd	.	4b-X	.
8CC#)	.	.	.	8eeJ)	.	.	.
=8	=8	=8	=8	=8	=8	=8	=8
(8DD^L	.	4.f#	.	2.ff#	.	4a)	.
8FF#	.	.	.	.	.	.	.
!	!	!	!	!	!	!	!LO:DY:t=%s espress.
8AAJ)	.	.	.	.	.	([8ff#v	p
(8DL	<	(8DL	.	.	.	8ff#L]	.
8C#)	.	8E)	.	.	.	8gg#	.
[8BBJ	.	[8F#J	<	.	.	[8aaJ	.
8BBL]	.	8F#L]	.	4.cc#	< [	8aaL])	<
(8AA#X	.	(8c#	.	.	.	(8aa#X	.
8GG#J)	[	8g#J)	[	.	.	[8bbJ	[
=9	=9	=9	=9	=9	=9	=9	=9
(8GGn^L	mf	(8b	mf	(8dd	mf	8bbL])	mf
8BB	.	4a)	.	4cc#)	.	(8aan	.
8DJ	.	.	.	.	.	[8ff#J	.
!	!	!	!	!	!	!LO:TX:a:B:t=pochiss. rit.	!
8EL)	>	(8a	>	(8cc#	>	8ff#L])	>
(8G#X	.	4g#)	.	4b)	.	(8gg#	.
8BJ)	.	.	.	.	.	[8eeJ	.
(4c#	.	(8g#	.	(8b	.	8eeL]	.
.	.	4gn)	.	4b-X)	.	8dd	.
8e	]]	.	]]	.	]]	8eeJ)	]]
=	=	=	=	=	=	=	=
*-	*-	*-	*-	*-	*-	*-	*-
!!!system-decoration: [(s1,s2,s3,s4)]
!!!EED: Rafael Laurindo
!!!EEV: 2021/08/20
!!!EED2: Gabriella Vici
!!!EEV2: 2022/02/17
